!!!COM: Olivier (Eugène Prosper Charles) Messiaen
!!!OTL: [T789_Mes-w29b5n9p2m18-26]
**kern	**kern	**dynam
!!pagebreak:original
*clefG2	*clefG2	*
*k[]	*k[]	*
*C:	*C:	*
*M4/16	*M4/16	*
=1	=1	=1
!	!LO:TX:t=[eighth]=138	!
16ryy	32g#XLLL 32b#X 32cc#X 32ff#X	fff
.	.	.
16ryy	32g#XJJJ 32b# 32cc# 32ff#	.
.	32ryy	.
.	8qg#X/ 8qb#X 8qcc#X 8qff#X	.
16An~LL 16dn 16e-X 16gn	16ryy	.
.	8qg/ 8qbn 8qccn 8qffn	.
16A~JJ 16d 16e- 16g	16ryy	.
=2	=2	=2
*M3/4	*M3/4	*
4r	4r	.
4r	4r	.
4r	4r	.
*clefF4	*	*
=3	=3	=3
*M2/4	*M2/4	*
!	!LO:TX:t=[quarter]=120	!
!	!LO:TX:b:i:t=(sourdine)	!
!	!LO:TX:b:i:t=  (liquide et fluide)	!
16r	4cn 4f#X 4bn	pp
[8.BBB-X [8.EEn	.	.
8BBB-L] 8EE]	8dnL 8gn 8dd-X	.
[8FFnJ	8AnJ 8e-X 8a-X	.
=4	=4	=4
16FFn]	4Gn 4B-X 4f#X	.
8.CCn 8.AA-X 8.Dn	.	.
[4AAn [4En	4Bn 4c#X 4d#X	.
=5	=5	=5
16AAKL] 16E]	8dn 8gn 8cc#X	.
[8.AA-XJ [8.An	.	.
*	*clefF4	*
.	4F#X 4Bn 4fn	.
8AA-L] 8A]	.	.
[8E-XJ	[8B-X [8cn [8en	.
!!linebreak:original
=6	=6	=6
*M2/4	*M2/4	*
*^	*	*
16E-]	4ryy	16B-] 16c] 16en]	.
*	*	*clefG2	*
[8.Cn [8.An	.	8.e-X 8.bn 8.ddn	.
*	*	*clefF4	*
8C] 8A]	8ryy	8.Gn 8.d-X 8.fn	.
16ryy	[8AA-X [8B-X	.	.
*	*	*clefG2	*
[16F#X	.	[16en [16bn [16ffn	.
=7	=7	=7	=7
8.F#X]	8AA-X] 8B-X]	8.en] 8.bn] 8.ffn]	.
.	4EE-X 4Dn	.	.
16ryy	.	[16cn [16a-X [16dd-X	.
4ryy	.	16cKL] 16a-X] 16dd-X]	.
.	.	8B-X 8gn 8an	.
.	[8Fn [8d-X	.	.
.	.	[16GnJk [16en	.
!!linebreak:original
=8	=8	=8	=8
2ryy	8F] 8d-X]	8.Gn] 8.en]	.
.	[8BBB-X [8BBn	.	.
*	*	*clefF4	*
.	.	[16F#X [16cn	.
.	8.BBB-] 8.BB]	8.F#] 8.c]	.
*	*	*clefG2	*
.	[16E-X [16An	[16dn [16a-X	.
=9	=9	=9	=9
2ryy	8E-X] 8An]	16dn] 16a-X]	.
.	.	[8.dd-X [8.cccn	.
.	[8A-X [8B-X [8dn [8fn	.	.
.	16A-] 16B-] 16d] 16f]	16dd-] 16ccc]	.
*clefG2	*	*	*
.	[8.en [8.f#X	8ee-X 8ggn	.
.	.	[16an [16bn	.
*v	*v	*	*
==	==	==
*-	*-	*-
!!!system-decoration: [({(s1,s2)})]
